.local/share/icons/Gruvbox-Plus-Dark/panel/16/hipchat4-attention.svg

<svg xmlns="http://www.w3.org/2000/svg" width="16" height="16" version="1.1">
 <defs>
  <style id="current-color-scheme" type="text/css">
   .ColorScheme-Text { color:#ebdbb2; } .ColorScheme-Highlight { color:#458588; }
  </style>
 </defs>
 <path style="fill:currentColor" class="ColorScheme-Text" d="M 7.5 0.94726562 C 3.4051875 0.94726562 0 4.0677344 0 7.9785156 C 0 11.889766 3.4051875 15.009766 7.5 15.009766 A 0.93759375 0.93759375 0 0 0 7.5019531 15.009766 C 8.0757031 15.008828 8.6385156 14.899141 9.1972656 14.775391 C 10.348516 15.533828 11.694453 16.216563 13.291016 15.929688 A 0.93759375 0.93759375 0 0 0 13.806641 14.365234 C 13.260081 13.787734 12.971953 13.426953 12.955078 12.658203 C 14.202891 11.375703 14.998125 9.7438281 15 7.9785156 C 15 4.0677344 11.595 0.94726562 7.5 0.94726562 z M 7.5 2.9453125 C 10.578405 2.9453125 12.998913 5.2275022 13 7.9765625 C 12.9988 9.1420178 12.473953 10.286679 11.521484 11.265625 L 10.9375 11.865234 L 10.955078 12.701172 C 10.961978 13.018036 11.115323 13.290459 11.203125 13.587891 C 10.911627 13.444641 10.62978 13.324786 10.296875 13.105469 L 9.5917969 12.638672 L 8.765625 12.820312 C 8.2411543 12.936473 7.8208158 13.009045 7.5 13.009766 C 4.421107 13.009766 2 10.728947 2 7.9785156 C 2 5.2286916 4.4211375 2.9453125 7.5 2.9453125 z M 4.4785156 8.4941406 A 0.50005 0.50005 0 0 0 4.0253906 9.1582031 C 4.0253906 9.1582031 4.2095038 9.6773428 4.7363281 10.128906 C 5.2631524 10.58047 6.15 11 7.5 11 C 8.85 11 9.7368475 10.58047 10.263672 10.128906 C 10.790496 9.6773428 10.974609 9.1582031 10.974609 9.1582031 A 0.50028184 0.50028184 0 0 0 10.025391 8.8417969 C 10.025391 8.8417969 9.959504 9.0726574 9.6113281 9.3710938 C 9.2631524 9.66953 8.65 10 7.5 10 C 6.35 10 5.7368476 9.66953 5.3886719 9.3710938 C 5.0404962 9.0726574 4.9746094 8.8417969 4.9746094 8.8417969 A 0.50005 0.50005 0 0 0 4.4785156 8.4941406 z"/>
 <circle style="fill:currentColor" class="ColorScheme-Highlight" cx="7.5" cy="6.5" r="1.5"/>
</svg>

<svg width="16" height="16" version="1.1" xmlns="http://www.w3.org/2000/svg">
  <defs>
    <style id="current-color-scheme" type="text/css">.ColorScheme-Text { color:#ebdbb2; } .ColorScheme-Highlight { color:#458588; } .ColorScheme-NeutralText { color:#fe8019; } .ColorScheme-PositiveText { color:#689d6a; } .ColorScheme-NegativeText { color:#fb4934; }</style>
  </defs>
  <path class="ColorScheme-Text" d="m7.5 0.9473c-4.095 0-7.5 3.12-7.5 7.031 0 3.911 3.405 7.031 7.5 7.031a0.9376 0.9376 0 0 0 0.001953 0c0.5738-9.38e-4 1.137-0.1106 1.695-0.2344 1.151 0.7584 2.497 1.441 4.094 1.154a0.9376 0.9376 0 0 0 0.5156-1.564c-0.5466-0.5775-0.8347-0.9383-0.8516-1.707 1.248-1.282 2.043-2.914 2.045-4.68 0-3.911-3.405-7.031-7.5-7.031zm0 1.998c3.078 0 5.499 2.282 5.5 5.031-0.0012 1.165-0.526 2.31-1.479 3.289l-0.584 0.5996 0.01758 0.8359c0.0069 0.3169 0.1602 0.5893 0.248 0.8867-0.2915-0.1432-0.5733-0.2631-0.9062-0.4824l-0.7051-0.4668-0.8262 0.1816c-0.5245 0.1162-0.9448 0.1887-1.266 0.1895-3.079 0-5.5-2.281-5.5-5.031 0-2.75 2.421-5.033 5.5-5.033zm-3.021 5.549a0.5 0.5 0 0 0-0.4531 0.6641s0.1841 0.5191 0.7109 0.9707c0.5268 0.4516 1.414 0.8711 2.764 0.8711s2.237-0.4195 2.764-0.8711c0.5268-0.4516 0.7109-0.9707 0.7109-0.9707a0.5003 0.5003 0 0 0-0.9492-0.3164s-0.06589 0.2309-0.4141 0.5293c-0.3482 0.2984-0.9613 0.6289-2.111 0.6289s-1.763-0.3305-2.111-0.6289c-0.3482-0.2984-0.4141-0.5293-0.4141-0.5293a0.5 0.5 0 0 0-0.4961-0.3477z" fill="currentColor"/>
  <circle class="ColorScheme-Highlight" cx="7.5" cy="6.5" r="1.5" fill="currentColor"/>
</svg>
